X:339
T:Leathern Bottle,The. RH.339
R:reel
S:Rev.R.Harrison’s MS,c1815,Cumbria
O:England
A:Temple Sowerby,Cumbria
Z:vmp.Simon Wilson. Review PJH, 2008.
M:2/4
L:1/8
Q:2/4=100
K:D
z|D2FA|D2FA|dfed|dcBA|\
dfdf|dfed|cABc|d2z:|!
|:c/d/|e2cA|e2cA|gfed|\
cBAG|FGAB|Afed|cABc|d2z:|

